svg/download_2.svg

<svg xmlns="http://www.w3.org/2000/svg" viewBox="0 0 32 32" enable-background="new 0 0 32 32"><path d="M 16 5 C 11.881031 5 8.6410897 8.1306815 8.1875 12.125 C 6.3932503 12.4248 4.9405202 13.644661 4.34375 15.34375 C 1.883741 16.056388 0 18.249284 0 21 C 0 24.32381 2.6761905 27 6 27 L 26 27 C 29.32381 27 32 24.32381 32 21 C 32 19.239589 31.145477 17.664208 29.90625 16.5625 C 29.674011 13.048311 26.870723 10.244435 23.34375 10.0625 C 22.139865 7.1309484 19.377659 5 16 5 z M 16 7 C 18.7625 7 20.971089 8.7714244 21.75 11.28125 L 21.96875 12 L 22.6875 12 L 23 12 C 25.754545 12 28 14.245455 28 17 L 28 17.5 L 28.40625 17.8125 C 29.35025 18.5205 30 19.733333 30 21 C 30 23.27619 28.27619 25 26 25 L 6 25 C 3.7238095 25 2 23.27619 2 21 C 2 18.98 3.448849 17.412428 5.28125 17.09375 L 5.9375 16.96875 L 6.0625 16.3125 C 6.3621165 14.964226 7.5561404 14 9 14 L 10 14 L 10 13 C 10 9.6299145 12.629915 7 16 7 z M 15 12 L 15 18.5625 L 12.71875 16.28125 L 11.28125 17.71875 L 15.28125 21.71875 L 16 22.40625 L 16.71875 21.71875 L 20.71875 17.71875 L 19.28125 16.28125 L 17 18.5625 L 17 12 L 15 12 z" color="#000" overflow="visible" enable-background="accumulate"/></svg>

<svg xmlns="http://www.w3.org/2000/svg" viewBox="0 0 32 32"><path d="M16 5c-4.12 0-7.36 3.13-7.813 7.125-1.794.3-3.246 1.52-3.843 3.22C1.884 16.054 0 18.248 0 21c0 3.324 2.676 6 6 6h20c3.324 0 6-2.676 6-6 0-1.76-.855-3.336-2.094-4.438-.232-3.514-3.035-6.318-6.562-6.5C22.14 7.133 19.378 5 16 5zm0 2c2.762 0 4.97 1.77 5.75 4.28l.22.72H23c2.755 0 5 2.245 5 5v.5l.406.313C29.35 18.52 30 19.733 30 21c0 2.276-1.724 4-4 4H6c-2.276 0-4-1.724-4-4 0-2.02 1.45-3.588 3.28-3.906l.657-.125.125-.657C6.362 14.963 7.556 14 9 14h1v-1c0-3.37 2.63-6 6-6zm-1 5v6.563l-2.28-2.282-1.44 1.44 4 4 .72.686.72-.687 4-4-1.44-1.44L17 18.563V12h-2z"/></svg>
